assets/medical-grey/MedicalGrey1.svg

<svg xmlns="http://www.w3.org/2000/svg" id="icons" viewBox="0 0 64 64"><defs><style>.cls-1{fill:none;stroke:#000;stroke-linecap:round;stroke-linejoin:round;stroke-width:2px}</style></defs><g id="ambulance_1"><rect width="19.85" height="19.85" x="32.16" y="17.28" class="cls-1" rx="9.92"/><path d="M42.07 22.24v9.68M36.89 27.2h10.38M21.39 45.65h19.6M51.05 45.65h8.82M4.13 45.65h7.19M41 45.65H26.34V18.48a5 5 0 015.17-4.89h19a5 5 0 015.16 4.89v27.17h-4.62" class="cls-1"/><path d="M11.32 45.65H6.37V29.52l8.21-12.04h11.76v28.17h-4.95M6.37 29.52h19.97" class="cls-1"/><ellipse cx="16.35" cy="45.65" class="cls-1" rx="5.03" ry="4.76"/><ellipse cx="46.02" cy="45.65" class="cls-1" rx="5.03" ry="4.76"/><path d="M18.95 17.48v-3.89" class="cls-1"/></g></svg>

<svg xmlns="http://www.w3.org/2000/svg" id="icons" viewBox="0 0 64 64"><defs><style>.cls-1{fill:none;stroke:#000;stroke-linecap:round;stroke-linejoin:round;stroke-width:2px;}</style></defs><g id="ambulance_1"><rect width="19.85" height="19.85" x="32.16" y="17.28" class="cls-1" rx="9.92"/><path d="M42.07 22.24 42.07 31.92" class="cls-1"/><path d="M36.89 27.2 47.27 27.2" class="cls-1"/><path d="M21.39 45.65 40.99 45.65" class="cls-1"/><path d="M51.05 45.65 59.87 45.65" class="cls-1"/><path d="M4.13 45.65 11.32 45.65" class="cls-1"/><path d="M41 45.65H26.34V18.48a5 5 0 0 1 5.17-4.89h19a5 5 0 0 1 5.16 4.89v27.17h-4.62" class="cls-1"/><path d="M11.32 45.65 6.37 45.65 6.37 29.52 14.58 17.48 26.34 17.48 26.34 45.65 21.39 45.65" class="cls-1"/><path d="M6.37 29.52 26.34 29.52" class="cls-1"/><ellipse cx="16.35" cy="45.65" class="cls-1" rx="5.03" ry="4.76"/><ellipse cx="46.02" cy="45.65" class="cls-1" rx="5.03" ry="4.76"/><path d="M18.95 17.48 18.95 13.59" class="cls-1"/></g></svg>
